X:1
T:[ID 1-25a]
T:[ID 1-25a]
T:Bezeichnung standardisiert: Menuett Menuet 5. In dieser Quelle auch als: Menuetto
T:Urheber unbekannt Erstbeleg: vor 1767 (Datum in der schriftlichen Quelle) Datum in der hier transkribierten schriftlichen Quelle: 1776 - 1791
C:Urheber unbekannt
C:Erstbeleg: vor 1767 (Datum in der schriftlichen Quelle)
C:Datum in der hier transkribierten schriftlichen Quelle: 1776 - 1791
L:1/8
M:3/4
K:G
V:1 treble 
V:1
 Gg f2 e2 | d2 c2 B2 | ABcBAG | FGAF D2 | g2 g2 g2 | fed^c d2 | egfed^c | d6 :: d2 e2 _f2 | %9
 efge c2 | e2 f2 g2 | fgaf d2 | dg f2 e2 | d2 c2 B2 | AcBAGF | G6 :| %16

